poi/svg/200k_svg/200k_7.svg

<?xml version="1.0" encoding="UTF-8" standalone="no"?>
<svg
   xmlns:dc="http://purl.org/dc/elements/1.1/"
   xmlns:cc="http://creativecommons.org/ns#"
   xmlns:rdf="http://www.w3.org/1999/02/22-rdf-syntax-ns#"
   xmlns:svg="http://www.w3.org/2000/svg"
   xmlns="http://www.w3.org/2000/svg"
   xmlns:sodipodi="http://sodipodi.sourceforge.net/DTD/sodipodi-0.dtd"
   xmlns:inkscape="http://www.inkscape.org/namespaces/inkscape"
   width="3.8671539mm"
   height="3.8671539mm"
   viewBox="0 0 10.962 10.962"
   version="1.2"
   id="svg38"
   sodipodi:docname="200k_7.svg"
   inkscape:version="1.0 (4035a4fb49, 2020-05-01)">
  <metadata
     id="metadata42">
    <rdf:RDF>
      <cc:Work
         rdf:about="">
        <dc:format>image/svg+xml</dc:format>
        <dc:type
           rdf:resource="http://purl.org/dc/dcmitype/StillImage" />
      </cc:Work>
    </rdf:RDF>
  </metadata>
  <sodipodi:namedview
     inkscape:document-rotation="0"
     pagecolor="#ffffff"
     bordercolor="#666666"
     borderopacity="1"
     objecttolerance="10"
     gridtolerance="10"
     guidetolerance="10"
     inkscape:pageopacity="0"
     inkscape:pageshadow="2"
     inkscape:window-width="1920"
     inkscape:window-height="1013"
     id="namedview40"
     showgrid="false"
     inkscape:zoom="17.308751"
     inkscape:cx="2.9799749"
     inkscape:cy="6.9198933"
     inkscape:window-x="-9"
     inkscape:window-y="-9"
     inkscape:window-maximized="1"
     inkscape:current-layer="svg38" />
  <title
     id="title2">Qt SVG Document</title>
  <desc
     id="desc4">Generated with Qt</desc>
  <defs
     id="defs6" />
  <g
     fill="none"
     stroke="#000000"
     stroke-width="1"
     fill-rule="evenodd"
     stroke-linecap="square"
     stroke-linejoin="bevel"
     id="g36"
     transform="translate(-10.44,-11.626)">
    <g
       fill="none"
       stroke="none"
       font-family="'MS Shell Dlg 2'"
       font-size="8.25px"
       font-weight="400"
       font-style="normal"
       id="g8" />
    <g
       fill="none"
       stroke="none"
       transform="scale(1.33333)"
       font-family="'MS Shell Dlg 2'"
       font-size="8.25px"
       font-weight="400"
       font-style="normal"
       id="g10" />
    <g
       fill="#1a1a1a"
       fill-opacity="1"
       stroke="none"
       font-family="'MS Shell Dlg 2'"
       font-size="8.25px"
       font-weight="400"
       font-style="normal"
       id="g14">
      <path
         vector-effect="none"
         fill-rule="evenodd"
         d="m 21.402,17.114 c 0,0.756 -0.1423,1.4677 -0.427,2.135 -0.2847,0.6673 -0.6767,1.2483 -1.176,1.743 -0.4993,0.4947 -1.0827,0.8843 -1.75,1.169 -0.6673,0.2847 -1.379,0.427 -2.135,0.427 -0.756,0 -1.4677,-0.1423 -2.135,-0.427 -0.6673,-0.2847 -1.2483,-0.6743 -1.743,-1.169 -0.4947,-0.4947 -0.8843,-1.0757 -1.169,-1.743 -0.2847,-0.6673 -0.427,-1.379 -0.427,-2.135 0,-0.756 0.1423,-1.4677 0.427,-2.135 0.2847,-0.6673 0.6743,-1.2507 1.169,-1.75 0.4947,-0.4993 1.0757,-0.8913 1.743,-1.176 0.6673,-0.2847 1.379,-0.427 2.135,-0.427 0.756,0 1.4677,0.1423 2.135,0.427 0.6673,0.2847 1.2507,0.6767 1.75,1.176 0.4993,0.4993 0.8913,1.0827 1.176,1.75 0.2847,0.6673 0.427,1.379 0.427,2.135"
         id="path12" />
    </g>
    <g
       fill="none"
       stroke="none"
       transform="scale(1.33333)"
       font-family="'MS Shell Dlg 2'"
       font-size="8.25px"
       font-weight="400"
       font-style="normal"
       id="g16" />
    <g
       fill="none"
       stroke="none"
       font-family="'MS Shell Dlg 2'"
       font-size="8.25px"
       font-weight="400"
       font-style="normal"
       id="g18" />
    <g
       fill="none"
       stroke="#000000"
       stroke-opacity="1"
       stroke-width="1"
       stroke-linecap="square"
       stroke-linejoin="bevel"
       font-family="'MS Shell Dlg 2'"
       font-size="8.25px"
       font-weight="400"
       font-style="normal"
       id="g20" />
    <g
       fill="none"
       stroke="none"
       font-family="'MS Shell Dlg 2'"
       font-size="8.25px"
       font-weight="400"
       font-style="normal"
       id="g22" />
    <g
       fill="none"
       stroke="none"
       transform="scale(1.33333)"
       font-family="'MS Shell Dlg 2'"
       font-size="8.25px"
       font-weight="400"
       font-style="normal"
       id="g24" />
    <g
       fill="#ffffff"
       fill-opacity="1"
       stroke="none"
       font-family="'MS Shell Dlg 2'"
       font-size="8.25px"
       font-weight="400"
       font-style="normal"
       id="g28">
      <path
         vector-effect="none"
         fill-rule="evenodd"
         d="m 16.893336,15.36763 c 0.2667,-0.28 0.5167,-0.5133 0.75,-0.7 0.1,-0.08 0.2017,-0.155 0.305,-0.225 0.1033,-0.07 0.2017,-0.125 0.295,-0.165 0.0933,-0.04 0.18,-0.0633 0.26,-0.07 0.08,-0.0067 0.1467,0.0133 0.2,0.06 0.0467,0.0533 0.0683,0.12 0.065,0.2 -0.0033,0.08 -0.025,0.17 -0.065,0.27 -0.04,0.1 -0.0967,0.2033 -0.17,0.31 -0.0733,0.1067 -0.15,0.21 -0.23,0.31 -0.1933,0.24 -0.4267,0.4967 -0.7,0.77 l 0.3,3.33 -0.42,0.55 -0.77,-3.04 -1.76,1.49 -0.07,1.14 -0.18,0.18 -0.55,-0.91 -0.96,-0.6 0.2,-0.16 1.19,-0.02 1.42,-1.83 -2.93,-0.89 0.46,-0.27 3.36,0.27"
         id="path26" />
    </g>
    <g
       fill="none"
       stroke="none"
       transform="scale(1.33333)"
       font-family="'MS Shell Dlg 2'"
       font-size="8.25px"
       font-weight="400"
       font-style="normal"
       id="g30" />
    <g
       fill="none"
       stroke="none"
       font-family="'MS Shell Dlg 2'"
       font-size="8.25px"
       font-weight="400"
       font-style="normal"
       id="g32" />
    <g
       fill="none"
       stroke="#000000"
       stroke-opacity="1"
       stroke-width="1"
       stroke-linecap="square"
       stroke-linejoin="bevel"
       font-family="'MS Shell Dlg 2'"
       font-size="8.25px"
       font-weight="400"
       font-style="normal"
       id="g34" />
  </g>
</svg>

<?xml version="1.0" encoding="UTF-8" standalone="no"?>
<svg width="11.2889mm" height="11.2889mm"
 viewBox="0 0 32 32"
 xmlns="http://www.w3.org/2000/svg" xmlns:xlink="http://www.w3.org/1999/xlink"  version="1.2" baseProfile="tiny">
<title>Qt SVG Document</title>
<desc>Generated with Qt</desc>
<defs>
</defs>
<g fill="none" stroke="black" stroke-width="1" fill-rule="evenodd" stroke-linecap="square" stroke-linejoin="bevel" >

<g fill="none" stroke="none" transform="matrix(1,0,0,1,0,0)"
font-family="MS Shell Dlg 2" font-size="8.25" font-weight="400" font-style="normal" 
>
</g>

<g fill="none" stroke="none" transform="matrix(1.33333,0,0,1.33333,0,0)"
font-family="MS Shell Dlg 2" font-size="8.25" font-weight="400" font-style="normal" 
>
</g>

<g fill="#1a1a1a" fill-opacity="1" stroke="none" transform="matrix(1,0,0,1,0,0)"
font-family="MS Shell Dlg 2" font-size="8.25" font-weight="400" font-style="normal" 
>
<path vector-effect="none" fill-rule="evenodd" d="M21.402,17.114 C21.402,17.87 21.2597,18.5817 20.975,19.249 C20.6903,19.9163 20.2983,20.4973 19.799,20.992 C19.2997,21.4867 18.7163,21.8763 18.049,22.161 C17.3817,22.4457 16.67,22.588 15.914,22.588 C15.158,22.588 14.4463,22.4457 13.779,22.161 C13.1117,21.8763 12.5307,21.4867 12.036,20.992 C11.5413,20.4973 11.1517,19.9163 10.867,19.249 C10.5823,18.5817 10.44,17.87 10.44,17.114 C10.44,16.358 10.5823,15.6463 10.867,14.979 C11.1517,14.3117 11.5413,13.7283 12.036,13.229 C12.5307,12.7297 13.1117,12.3377 13.779,12.053 C14.4463,11.7683 15.158,11.626 15.914,11.626 C16.67,11.626 17.3817,11.7683 18.049,12.053 C18.7163,12.3377 19.2997,12.7297 19.799,13.229 C20.2983,13.7283 20.6903,14.3117 20.975,14.979 C21.2597,15.6463 21.402,16.358 21.402,17.114 "/>
</g>

<g fill="none" stroke="none" transform="matrix(1.33333,0,0,1.33333,0,0)"
font-family="MS Shell Dlg 2" font-size="8.25" font-weight="400" font-style="normal" 
>
</g>

<g fill="none" stroke="none" transform="matrix(1,0,0,1,0,0)"
font-family="MS Shell Dlg 2" font-size="8.25" font-weight="400" font-style="normal" 
>
</g>

<g fill="none" stroke="#000000" stroke-opacity="1" stroke-width="1" stroke-linecap="square" stroke-linejoin="bevel" transform="matrix(1,0,0,1,0,0)"
font-family="MS Shell Dlg 2" font-size="8.25" font-weight="400" font-style="normal" 
>
</g>

<g fill="none" stroke="none" transform="matrix(1,0,0,1,0,0)"
font-family="MS Shell Dlg 2" font-size="8.25" font-weight="400" font-style="normal" 
>
</g>

<g fill="none" stroke="none" transform="matrix(1.33333,0,0,1.33333,0,0)"
font-family="MS Shell Dlg 2" font-size="8.25" font-weight="400" font-style="normal" 
>
</g>

<g fill="#ffffff" fill-opacity="1" stroke="none" transform="matrix(1,0,0,1,0,0)"
font-family="MS Shell Dlg 2" font-size="8.25" font-weight="400" font-style="normal" 
>
<path vector-effect="none" fill-rule="evenodd" d="M16.74,15.49 C17.0067,15.21 17.2567,14.9767 17.49,14.79 C17.59,14.71 17.6917,14.635 17.795,14.565 C17.8983,14.495 17.9967,14.44 18.09,14.4 C18.1833,14.36 18.27,14.3367 18.35,14.33 C18.43,14.3233 18.4967,14.3433 18.55,14.39 C18.5967,14.4433 18.6183,14.51 18.615,14.59 C18.6117,14.67 18.59,14.76 18.55,14.86 C18.51,14.96 18.4533,15.0633 18.38,15.17 C18.3067,15.2767 18.23,15.38 18.15,15.48 C17.9567,15.72 17.7233,15.9767 17.45,16.25 L17.75,19.58 L17.33,20.13 L16.56,17.09 L14.8,18.58 L14.73,19.72 L14.55,19.9 L14,18.99 L13.04,18.39 L13.24,18.23 L14.43,18.21 L15.85,16.38 L12.92,15.49 L13.38,15.22 L16.74,15.49"/>
</g>

<g fill="none" stroke="none" transform="matrix(1.33333,0,0,1.33333,0,0)"
font-family="MS Shell Dlg 2" font-size="8.25" font-weight="400" font-style="normal" 
>
</g>

<g fill="none" stroke="none" transform="matrix(1,0,0,1,0,0)"
font-family="MS Shell Dlg 2" font-size="8.25" font-weight="400" font-style="normal" 
>
</g>

<g fill="none" stroke="#000000" stroke-opacity="1" stroke-width="1" stroke-linecap="square" stroke-linejoin="bevel" transform="matrix(1,0,0,1,0,0)"
font-family="MS Shell Dlg 2" font-size="8.25" font-weight="400" font-style="normal" 
>
</g>
</g>
</svg>
